X: 152
T:Da Slockit Light
N: page 50
N: heptatonic
N: matches 345
C:Tom Anderson
O:Shetland
M:4/4
L:1/8
R:Air
K:D
FE|"D"D3 F A2 d2|"D"fedc d2 A2|"G"B2 d2 "D/F#"A2 d2|"G"BAGF "A"EGFE|\
"D"D3 F A2 d2|"D"fedc "Bm"d2 A2| "G"B2 G2 "A"AGFE|"D" D6:|
|g2|"D"f2 a2 "A"e3c|"Bm"d3 e "A"dcBA|"D"f2 a2 "E"e2 ^g2|\
"A"a6 g2| "D"f2 a2 "A"e3c|"G"d3 e "D/F#"dcBA|"G"B2 G2 "A"AGFE|"D"D4-D3g|
"D"f2 a2 "A" e3c|"Bm"d3 e "G"dc "D/F#"BA| "G"B2 d2 A2 d2|\
"G"BAGF "A"EGFE|"D"D3 F A2 d2|"A"fedc "Bm"d2A2|\
"G"B2 G2 "A"AGFE|"D" D6||
